src/images/logo.svg

<svg width="14" height="20" viewBox="0 0 14 20" fill="none" xmlns="http://www.w3.org/2000/svg">
<path d="M2.8072 12.3303C3.491 12.3303 4.2108 12.6239 5.00257 13.2477C5.97429 14.0183 6.62211 14.3853 6.98201 14.3853C7.52185 14.3853 7.77378 14.0917 7.77378 13.5413C7.77378 13.2477 7.62982 12.9908 7.30591 12.7706C7.12596 12.6606 6.22622 12.2936 4.53471 11.7064C1.79949 10.7156 0.431881 8.91743 0.431881 6.23853C0.431881 4.22018 1.15167 2.6422 2.59126 1.50459C3.88689 0.513761 5.43445 0 7.30591 0C8.92545 0 10.329 0.40367 11.5167 1.17431C12.7044 1.94495 13.3162 2.97248 13.3162 4.22018C13.3162 4.95413 13.1003 5.57798 12.6324 6.09174C12.1645 6.6055 11.5887 6.82569 10.8689 6.82569C10.1131 6.82569 9.28535 6.45872 8.34962 5.72477C7.77378 5.2844 7.3419 5.02752 7.05399 5.02752C6.55013 5.02752 6.2982 5.2844 6.2982 5.76147C6.2982 6.23853 6.91003 6.6789 8.16967 7.04587C9.89717 7.59633 11.1928 8.25688 12.1285 9.06422C13.3882 10.1284 14 11.5963 14 13.5046C14 15.5963 13.3162 17.211 11.9126 18.3853C10.617 19.4862 8.92545 20 6.83804 20C4.75064 20 3.02314 19.4495 1.65553 18.3119C0.575837 17.3945 0 16.367 0 15.156C0 14.3486 0.251932 13.6881 0.791778 13.1376C1.36761 12.6239 2.01542 12.3303 2.8072 12.3303Z" fill="white"/>
</svg>

<svg width="14" height="20" fill="none" xmlns="http://www.w3.org/2000/svg"><path d="M2.807 12.33c.684 0 1.404.294 2.196.918.971.77 1.62 1.137 1.979 1.137.54 0 .792-.293.792-.844 0-.293-.144-.55-.468-.77-.18-.11-1.08-.477-2.771-1.065C1.799 10.716.432 8.917.432 6.24c0-2.019.72-3.597 2.16-4.734C3.886.514 5.433 0 7.305 0c1.62 0 3.023.404 4.21 1.174 1.188.771 1.8 1.798 1.8 3.046 0 .734-.216 1.358-.684 1.872-.467.514-1.043.734-1.763.734-.756 0-1.584-.367-2.52-1.101-.575-.44-1.007-.697-1.295-.697-.504 0-.756.256-.756.733 0 .478.612.918 1.872 1.285 1.727.55 3.023 1.21 3.959 2.018 1.26 1.064 1.871 2.532 1.871 4.44 0 2.092-.684 3.707-2.087 4.881C10.617 19.486 8.925 20 6.838 20s-3.815-.55-5.182-1.688C.576 17.394 0 16.367 0 15.156c0-.807.252-1.468.792-2.018.576-.514 1.223-.808 2.015-.808Z" fill="#fff"/></svg>
